packages/foundations/assets/icons/functional/images/logos/s_bahn_20.svg

<svg width="20" height="20" viewBox="0 0 20 20" fill="none" xmlns="http://www.w3.org/2000/svg">
<g clip-path="url(#clip0_185_1715)">
<path fill-rule="evenodd" clip-rule="evenodd" d="M10.0002 2C14.4183 2 18 5.5818 18 10.0002C18 14.4183 14.4183 18 10.0002 18C5.58155 18 2 14.4185 2 10.0002C2 5.58161 5.58148 2 10.0002 2ZM10.0002 4C6.68606 4 4 6.68617 4 10.0002C4 13.3139 6.68612 16 10.0002 16C13.3137 16 16 13.3137 16 10.0002C16 6.68636 13.3137 4 10.0002 4ZM9.72441 6C10.8349 6 11.8297 6.37705 12.6202 7.01171V8.34481C11.9361 7.58148 10.9059 6.91046 9.69766 6.91046C9.01383 6.91046 8.62287 7.28751 8.62287 7.72889C8.62287 8.36427 9.14579 8.62948 9.83385 8.82563L10.8569 9.08269C11.9739 9.36995 13.0909 9.80658 13.0909 11.3327C13.0909 12.5654 11.9361 14 9.99108 14C8.90737 14 7.68378 13.494 7.00021 12.8596V11.2594C7.64839 12.225 8.80065 12.9695 9.99108 12.9695C10.7195 12.9695 11.3055 12.538 11.3055 12.0778C11.3055 11.4673 10.7628 11.2041 10.0587 10.9895L9.19641 10.7465C8.06842 10.4229 6.90909 9.95771 6.90909 8.41838C6.90909 6.84584 8.39213 6 9.72441 6Z" fill="#1A1C1F"/>
</g>
<defs>
<clipPath id="clip0_185_1715">
<rect width="20" height="20" fill="white"/>
</clipPath>
</defs>
</svg>

<svg xmlns="http://www.w3.org/2000/svg" width="20" height="20" fill="none"><g clip-path="url(#a)"><path fill="#1A1C1F" fill-rule="evenodd" d="M10 2a8 8 0 1 1 0 16 8 8 0 0 1 0-16m0 2a6 6 0 1 0 0 12 6 6 0 0 0 0-12m-.276 2a4.58 4.58 0 0 1 2.896 1.012v1.333c-.684-.764-1.714-1.435-2.922-1.435-.684 0-1.075.378-1.075.819 0 .635.523.9 1.21 1.097l1.024.257c1.117.287 2.234.724 2.234 2.25 0 1.232-1.155 2.667-3.1 2.667-1.084 0-2.307-.506-2.99-1.14v-1.6c.647.965 1.8 1.71 2.99 1.71.729 0 1.315-.432 1.315-.892 0-.61-.543-.874-1.247-1.088l-.863-.244c-1.128-.323-2.287-.788-2.287-2.328C6.91 6.846 8.392 6 9.724 6" clip-rule="evenodd"/></g><defs><clipPath id="a"><path fill="#fff" d="M0 0h20v20H0z"/></clipPath></defs></svg>
